icons/svg/24x24/filter/outline.svg

<svg width="24" height="24" fill="none" xmlns="http://www.w3.org/2000/svg">
  <path fill-rule="evenodd" clip-rule="evenodd" d="M12 3C7 3 3 4 3 5s7 8 7 8v6l4 3v-9s7-7 7-8-4-2-9-2zm0 2c2.757 0 4.891.31 6.178.629-1.275 1.506-3.563 3.928-5.592 5.957l-.586.586V18v-5.828l-.586-.586C9.385 9.557 7.097 7.135 5.822 5.629 7.109 5.31 9.243 5 12 5z" fill="#000"/>
</svg>

<svg xmlns="http://www.w3.org/2000/svg" width="24" height="24" viewBox="0 0 24 24">
  <path fill-rule="evenodd" d="M12,3 C7,3 3,4 3,5 C3,6 10,13 10,13 L10,19 L14,22 L14,13 C14,13 21,6 21,5 C21,4 17,3 12,3 M12,5 C14.757,5 16.891,5.31 18.178,5.629 C16.903,7.135 14.615,9.557 12.586,11.586 L12,12.172 L12,13 L12,18 L12,13 L12,12.172 L11.414,11.586 C9.385,9.557 7.097,7.135 5.822,5.629 C7.109,5.31 9.243,5 12,5"/>
</svg>
